icons/core/book-open.svg

<svg width="32" height="32" viewBox="0 0 32 32" fill="none" xmlns="http://www.w3.org/2000/svg">
<path fill-rule="evenodd" clip-rule="evenodd" d="M4 6C2.89543 6 2 6.89543 2 8V24C2 25.1046 2.89543 26 4 26H10C12.9399 26 15 27.9538 15 30H17C17 27.9538 19.0601 26 22 26H28C29.1046 26 30 25.1046 30 24V8C30 6.89543 29.1046 6 28 6H21C18.913 6 17.0749 7.06551 16 8.68221C14.9251 7.06551 13.087 6 11 6H4ZM10 24C11.9003 24 13.7009 24.6701 15 25.7954V12C15 9.79086 13.2091 8 11 8H4V24H10ZM22 24C20.0997 24 18.2991 24.6701 17 25.7954V12C17 9.79086 18.7909 8 21 8H28V24H22Z" fill="black"/>
</svg>

<svg viewBox="0 0 32 32" xmlns="http://www.w3.org/2000/svg"><path fill-rule="evenodd" d="M4 6a2 2 0 00-2 2v16a2 2 0 002 2h6c2.94 0 5 1.954 5 4h2c0-2.046 2.06-4 5-4h6a2 2 0 002-2V8a2 2 0 00-2-2h-7a5.994 5.994 0 00-5 2.682A5.994 5.994 0 0011 6H4zm6 18c1.9 0 3.7.67 5 1.795V12a4 4 0 00-4-4H4v16h6zm12 0c-1.9 0-3.7.67-5 1.795V12a4 4 0 014-4h7v16h-6z"/></svg>
